outputs/icons/content/send_round.svg

<svg width="1200" height="1200" viewBox="0 0 1200 1200" fill="none" xmlns="http://www.w3.org/2000/svg"><g clip-path="url(#clip0_225_3307)"><path d="M170 1020L1042.5 646C1083 628.5 1083 571.5 1042.5 554L170 180.001C137 165.501 100.5 190.001 100.5 225.501L100 456.001C100 481.001 118.5 502.5 143.5 505.5L850 600L143.5 694C118.5 697.5 100 719 100 744L100.5 974.5C100.5 1010 137 1034.5 170 1020Z" fill="black"/></g><defs><clipPath id="clip0_225_3307"><path width="24" fill="white" d="M0 0H1200V1200H0V0z"/></clipPath></defs></svg>

<svg xmlns="http://www.w3.org/2000/svg" width="1200" height="1200" fill="none"><g clip-path="url(#a)"><path fill="#000" d="m170 1020 872.5-374c40.5-17.5 40.5-74.5 0-92L170 180.001c-33-14.5-69.5 10-69.5 45.5l-.5 230.5c0 25 18.5 46.499 43.5 49.499L850 600l-706.5 94c-25 3.5-43.5 25-43.5 50l.5 230.5c0 35.5 36.5 60 69.5 45.5"/></g><defs><clipPath id="a"><path fill="#fff" d="M0 0h1200v1200H0z"/></clipPath></defs></svg>
